public/img/image-placeholder.svg

<?xml version="1.0" encoding="UTF-8"?>
<svg width="79px" height="79px" viewBox="0 0 79 79" version="1.1" xmlns="http://www.w3.org/2000/svg" xmlns:xlink="http://www.w3.org/1999/xlink">
    <!-- Generator: Sketch 51 (57462) - http://www.bohemiancoding.com/sketch -->
    <title>Brand_logoPlaceHolder</title>
    <desc>Created with Sketch.</desc>
    <defs>
        <circle id="path-1" cx="39.5" cy="39.5" r="39.5"></circle>
    </defs>
    <g id="Login" stroke="none" stroke-width="1" fill="none" fill-rule="evenodd">
        <g id="Brand_logoPlaceHolder">
            <mask id="mask-2" fill="white">
                <use xlink:href="#path-1"></use>
            </mask>
            <use id="Mask" fill="#2E2D2C" xlink:href="#path-1"></use>
            <g id="Group-5" mask="url(#mask-2)">
                <g transform="translate(-1.000000, 0.000000)">
                    <circle id="Oval-3" fill="#2E2D2C" cx="40.5" cy="39.5" r="39.5"></circle>
                    <circle id="Oval-4" fill="#000000" cx="32" cy="21" r="12"></circle>
                    <rect id="Rectangle" fill="#000000" x="0" y="38" width="81" height="2"></rect>
                    <path d="M9,55.3485582 L9,46.0663018 L13.4277929,46.0663018 C14.5267993,46.0663018 15.3578537,46.3403467 15.9209809,46.8884445 C16.3569504,47.3127784 16.5749319,47.8476078 16.5749319,48.4929489 C16.5749319,49.3681374 16.1571341,50.0355692 15.3215259,50.4952642 C15.9119012,50.7162714 16.3569467,51.0057865 16.6566757,51.3638181 C16.9564048,51.7218498 17.106267,52.2014283 17.106267,52.8025679 C17.106267,53.633555 16.7883774,54.2656261 16.1525886,54.6988003 C15.5167997,55.1319744 14.6448738,55.3485582 13.5367847,55.3485582 L9,55.3485582 Z M11.0435967,49.8189855 L12.9782016,49.8189855 C13.9863811,49.8189855 14.4904632,49.4830596 14.4904632,48.8111976 C14.4904632,48.5017875 14.3723899,48.2653134 14.1362398,48.101768 C13.9000896,47.9382227 13.5594936,47.8564513 13.1144414,47.8564513 L11.0435967,47.8564513 L11.0435967,49.8189855 Z M11.0435967,53.5584088 L13.5367847,53.5584088 C14.5267988,53.5584088 15.0217984,53.2136427 15.0217984,52.5241002 C15.0217984,51.8522383 14.5040924,51.5163124 13.4686649,51.5163124 L11.0435967,51.5163124 L11.0435967,53.5584088 Z M18.8365123,55.3485582 L18.8365123,46.0663018 L23.1961853,46.0663018 C24.4041841,46.0663018 25.3306053,46.3801274 25.9754768,47.0077878 C26.5204387,47.5382051 26.7929155,48.2542578 26.7929155,49.1559672 C26.7929155,50.5792536 26.1117234,51.5384105 24.7493188,52.0334666 L27.0790191,55.3485582 L24.626703,55.3485582 L22.5558583,52.3782362 L20.9346049,52.3782362 L20.9346049,55.3485582 L18.8365123,55.3485582 Z M20.9346049,50.5748264 L23.0599455,50.5748264 C23.5685766,50.5748264 23.963668,50.4532742 24.2452316,50.2101663 C24.5267952,49.9670584 24.6675749,49.6421826 24.6675749,49.2355294 C24.6675749,48.8023552 24.522254,48.4730594 24.2316076,48.2476321 C23.9409613,48.0222047 23.5367873,47.9094927 23.0190736,47.9094927 L20.9346049,47.9094927 L20.9346049,50.5748264 Z M27.8692098,55.3485582 L31.9564033,46 L33.8910082,46 L37.9782016,55.3485582 L35.7847411,55.3485582 L34.9128065,53.2666807 L30.880109,53.2666807 L30.0081744,55.3485582 L27.8692098,55.3485582 Z M31.6294278,51.4632709 L34.1634877,51.4632709 L32.8964578,48.4531678 L31.6294278,51.4632709 Z M39.4495913,55.3485582 L39.4495913,46.0663018 L41.3841962,46.0663018 L45.852861,51.7815197 L45.852861,46.0663018 L47.9237057,46.0663018 L47.9237057,55.3485582 L46.1389646,55.3485582 L41.520436,49.4476952 L41.520436,55.3485582 L39.4495913,55.3485582 Z M50.2125341,55.3485582 L50.2125341,46.0663018 L53.9318801,46.0663018 C55.4214425,46.0663018 56.6385057,46.5060996 57.5831063,47.3857083 C58.5277068,48.265317 59,49.3725465 59,50.70743 C59,52.0334733 58.5254362,53.1384927 57.5762943,54.0225216 C56.6271524,54.9065504 55.4123598,55.3485582 53.9318801,55.3485582 L50.2125341,55.3485582 Z M52.3106267,53.5053673 L53.9318801,53.5053673 C54.7947364,53.5053673 55.4895523,53.2467927 56.0163488,52.7296359 C56.5431452,52.212479 56.8065395,51.5384171 56.8065395,50.70743 C56.8065395,49.8852832 56.5408746,49.2134314 56.0095368,48.6918543 C55.478199,48.1702773 54.7856537,47.9094927 53.9318801,47.9094927 L52.3106267,47.9094927 L52.3106267,53.5053673 Z M9,66.8408756 L9,57.5586192 L11.0980926,57.5586192 L11.0980926,64.9844243 L15.852861,64.9844243 L15.852861,66.8408756 L9,66.8408756 Z M25.1444142,65.6076615 C24.1816482,66.5358918 22.9736676,67 21.520436,67 C20.0672044,67 18.8614943,66.5358918 17.9032698,65.6076615 C16.9450452,64.6794313 16.4659401,63.5434713 16.4659401,62.1997474 C16.4659401,60.8648639 16.9495864,59.7311139 17.9168937,58.7984635 C18.884201,57.8658131 20.0944523,57.3994948 21.5476839,57.3994948 C23.0009155,57.3994948 24.2066255,57.863603 25.1648501,58.7918333 C26.1230747,59.7200636 26.6021798,60.8560236 26.6021798,62.1997474 C26.6021798,63.534631 26.1162628,64.670591 25.1444142,65.6076615 Z M19.4768392,64.2683646 C20.0218011,64.834143 20.7120757,65.117028 21.5476839,65.117028 C22.3832921,65.117028 23.0690255,64.836353 23.6049046,64.2749947 C24.1407838,63.7136364 24.4087193,63.0218942 24.4087193,62.1997474 C24.4087193,61.3864409 24.1362425,60.6969087 23.5912807,60.1311303 C23.0463188,59.5653518 22.3560441,59.2824668 21.520436,59.2824668 C20.6848278,59.2824668 19.9990944,59.5631418 19.4632153,60.1245001 C18.9273361,60.6858584 18.6594005,61.3776006 18.6594005,62.1997474 C18.6594005,63.013054 18.9318774,63.7025861 19.4768392,64.2683646 Z M33.0599455,67 C31.5794658,67 30.3737558,66.5491521 29.4427793,65.6474426 C28.5118028,64.7457332 28.0463215,63.596513 28.0463215,62.1997474 C28.0463215,60.8648639 28.523156,59.7311139 29.4768392,58.7984635 C30.4305225,57.8658131 31.620338,57.3994948 33.0463215,57.3994948 C33.872847,57.3994948 34.5722042,57.5033667 35.1444142,57.7111134 C35.7166241,57.9188602 36.2661191,58.2393159 36.7929155,58.67249 L35.4713896,60.2239529 C35.071751,59.8968622 34.6857421,59.658178 34.3133515,59.5078931 C33.9409609,59.3576082 33.4959154,59.2824668 32.9782016,59.2824668 C32.215255,59.2824668 31.5681225,59.5675619 31.0367847,60.1377605 C30.5054469,60.7079591 30.239782,61.3952812 30.239782,62.1997474 C30.239782,63.0484151 30.5099882,63.7512075 31.0504087,64.3081457 C31.5908292,64.8650838 32.2833745,65.1435487 33.1280654,65.1435487 C33.9091774,65.1435487 34.5676631,64.9579055 35.1035422,64.5866133 L35.1035422,63.2605767 L32.9918256,63.2605767 L32.9918256,61.496948 L37.133515,61.496948 L37.133515,65.5280993 C35.9436816,66.5093714 34.5858387,67 33.0599455,67 Z M47.4059946,65.6076615 C46.4432286,66.5358918 45.235248,67 43.7820163,67 C42.3287847,67 41.1230747,66.5358918 40.1648501,65.6076615 C39.2066255,64.6794313 38.7275204,63.5434713 38.7275204,62.1997474 C38.7275204,60.8648639 39.2111668,59.7311139 40.1784741,58.7984635 C41.1457814,57.8658131 42.3560327,57.3994948 43.8092643,57.3994948 C45.2624959,57.3994948 46.4682059,57.863603 47.4264305,58.7918333 C48.3846551,59.7200636 48.8637602,60.8560236 48.8637602,62.1997474 C48.8637602,63.534631 48.3778432,64.670591 47.4059946,65.6076615 Z M41.7384196,64.2683646 C42.2833815,64.834143 42.9736561,65.117028 43.8092643,65.117028 C44.6448725,65.117028 45.3306059,64.836353 45.866485,64.2749947 C46.4023642,63.7136364 46.6702997,63.0218942 46.6702997,62.1997474 C46.6702997,61.3864409 46.3978229,60.6969087 45.852861,60.1311303 C45.3078992,59.5653518 44.6176245,59.2824668 43.7820163,59.2824668 C42.9464082,59.2824668 42.2606748,59.5631418 41.7247956,60.1245001 C41.1889165,60.6858584 40.9209809,61.3776006 40.9209809,62.1997474 C40.9209809,63.013054 41.1934578,63.7025861 41.7384196,64.2683646 Z" id="BRAND-LOGO" fill="#000000"></path>
                </g>
            </g>
        </g>
    </g>
</svg>

<svg xmlns="http://www.w3.org/2000/svg" xmlns:xlink="http://www.w3.org/1999/xlink" viewBox="0 0 79 79" width="79" height="79">
  <defs>
    <circle id="a" cx="39.5" cy="39.5" r="39.5"/>
  </defs>
  <g fill="none" fill-rule="evenodd">
    <mask id="b" fill="#fff">
      <use xlink:href="#a"/>
    </mask>
    <use fill="#2E2D2C" xlink:href="#a"/>
    <g mask="url(#b)">
      <g transform="translate(-1)">
        <circle cx="40.5" cy="39.5" r="39.5" fill="#2E2D2C"/>
        <circle cx="32" cy="21" r="12" fill="#000"/>
        <path fill="#000" d="M0 38h81v2H0zM9 55.349v-9.283h4.428c1.099 0 1.93.274 2.493.822.436.425.654.96.654 1.605 0 .875-.418 1.543-1.253 2.002.59.221 1.035.51 1.335.869.3.358.45.837.45 1.439 0 .83-.319 1.463-.954 1.896-.636.433-1.508.65-2.616.65H9zm2.044-5.53h1.934c1.008 0 1.512-.336 1.512-1.008 0-.31-.118-.546-.354-.71-.236-.163-.577-.245-1.022-.245h-2.07v1.963zm0 3.74h2.493c.99 0 1.485-.345 1.485-1.035 0-.672-.518-1.008-1.553-1.008h-2.425v2.042zm7.793 1.79v-9.283h4.36c1.207 0 2.134.314 2.778.942.545.53.818 1.246.818 2.148 0 1.423-.681 2.382-2.044 2.877l2.33 3.316h-2.452l-2.071-2.97h-1.621v2.97h-2.098zm2.098-4.774h2.125c.509 0 .904-.122 1.185-.365.282-.243.423-.568.423-.974 0-.434-.146-.763-.436-.988-.291-.226-.695-.339-1.213-.339h-2.084v2.666zm6.934 4.774L31.956 46h1.935l4.087 9.349h-2.193l-.872-2.082H30.88l-.872 2.082H27.87zm3.76-3.886h2.534l-1.267-3.01-1.267 3.01zm7.82 3.886v-9.283h1.935l4.469 5.716v-5.716h2.07v9.283H46.14l-4.619-5.901v5.9h-2.07zm10.764 0v-9.283h3.719c1.49 0 2.707.44 3.651 1.32.945.88 1.417 1.987 1.417 3.321 0 1.326-.475 2.431-1.424 3.316-.949.884-2.164 1.326-3.644 1.326h-3.72zm2.098-1.844h1.62c.864 0 1.559-.258 2.085-.775.527-.518.79-1.192.79-2.023 0-.822-.265-1.494-.796-2.015-.532-.522-1.224-.783-2.078-.783H52.31v5.596zM9 66.841v-9.282h2.098v7.425h4.755v1.857H9zm16.144-1.233c-.962.928-2.17 1.392-3.624 1.392-1.453 0-2.659-.464-3.617-1.392-.958-.929-1.437-2.065-1.437-3.408 0-1.335.484-2.469 1.45-3.402.968-.932 2.178-1.399 3.632-1.399 1.453 0 2.659.465 3.617 1.393.958.928 1.437 2.064 1.437 3.408 0 1.335-.486 2.47-1.458 3.408zm-5.667-1.34c.545.566 1.235.849 2.07.849.836 0 1.522-.28 2.058-.842.536-.561.804-1.253.804-2.075 0-.814-.273-1.503-.818-2.069-.545-.566-1.235-.849-2.07-.849-.836 0-1.522.281-2.058.843-.536.56-.804 1.253-.804 2.075 0 .813.273 1.503.818 2.068zM33.06 67c-1.48 0-2.686-.45-3.617-1.353-.931-.901-1.397-2.05-1.397-3.447 0-1.335.477-2.469 1.43-3.402.955-.932 2.144-1.399 3.57-1.399.827 0 1.526.104 2.098.312a5.615 5.615 0 011.649.961l-1.322 1.552c-.4-.327-.785-.566-1.158-.716-.372-.15-.817-.226-1.335-.226-.763 0-1.41.286-1.941.856-.532.57-.797 1.257-.797 2.062 0 .848.27 1.551.81 2.108.54.557 1.233.836 2.078.836.781 0 1.44-.186 1.976-.557V63.26h-2.112v-1.764h4.142v4.031C35.944 66.51 34.586 67 33.06 67zm14.346-1.392c-.963.928-2.17 1.392-3.624 1.392-1.453 0-2.659-.464-3.617-1.392-.958-.929-1.437-2.065-1.437-3.408 0-1.335.483-2.469 1.45-3.402.968-.932 2.178-1.399 3.631-1.399 1.453 0 2.66.465 3.617 1.393.959.928 1.438 2.064 1.438 3.408 0 1.335-.486 2.47-1.458 3.408zm-5.668-1.34c.545.566 1.236.849 2.071.849.836 0 1.522-.28 2.057-.842.536-.561.804-1.253.804-2.075 0-.814-.272-1.503-.817-2.069-.545-.566-1.235-.849-2.071-.849-.836 0-1.521.281-2.057.843-.536.56-.804 1.253-.804 2.075 0 .813.272 1.503.817 2.068z"/>
      </g>
    </g>
  </g>
</svg>
